svgs/thin/shelves-empty.svg

<svg xmlns="http://www.w3.org/2000/svg" viewBox="0 0 640 512"><!--! Font Awesome Pro 6.3.0 by @fontawesome - https://fontawesome.com License - https://fontawesome.com/license (Commercial License) Copyright 2023 Fonticons, Inc. --><path d="M600 0c-4.422 0-8 3.594-8 8V176h-544V8C48 3.594 44.42 0 40 0S32 3.594 32 8v496C32 508.4 35.58 512 40 512s8-3.594 8-8V448h544v56c0 4.406 3.578 8 8 8S608 508.4 608 504V8C608 3.594 604.4 0 600 0zM592 432h-544V192h544V432z"/></svg>

<svg xmlns="http://www.w3.org/2000/svg" viewBox="0 0 640 512"><!-- Font Awesome Pro 6.0.0-alpha2 by @fontawesome - https://fontawesome.com License - https://fontawesome.com/license (Commercial License) --><path d="M600 0C595.578 0 592 3.594 592 8V176H48V8C48 3.594 44.422 0 40 0S32 3.594 32 8V504C32 508.406 35.578 512 40 512S48 508.406 48 504V448H592V504C592 508.406 595.578 512 600 512S608 508.406 608 504V8C608 3.594 604.422 0 600 0ZM592 432H48V192H592V432Z"/></svg>
